;FLAVOR:Marlin
;TIME:4798
;Filament used: 4.77594m
;Layer height: 0.32
;MINX:82.22
;MINY:87.22
;MINZ:0.32
;MAXX:137.78
;MAXY:132.78
;MAXZ:28.48
;Generated with Cura_SteamEngine 5.4.0
M140 S60
M105
M190 S60
M104 S220
M105
M109 S220
M82 ;absolute extrusion mode
G28 ; home all axes
 M117 Purge extruder
 G92 E0 ; reset extruder
 G1 Z1.0 F3000 ; move z up little to prevent scratching of surface
 G1 X2 Y20 Z0.3 F5000.0 ; move to start-line position
 G1 X2 Y200.0 Z0.3 F1500.0 E15 ; draw 1st line
 G1 X2 Y200.0 Z0.4 F5000.0 ; move to side a little
 G1 X2 Y20 Z0.4 F1500.0 E30 ; draw 2nd line
 G92 E0 ; reset extruder
 G1 Z1.0 F3000 ; move z up little to prevent scratching of surface
G92 E0
G92 E0
G1 F2100 E-2
;LAYER_COUNT:89
;LAYER:0
M106 S255
G1 F300 Z0.52
G0 F6000 X84.842 Y89.186 Z0.52
;TYPE:SKIRT
G1 F300 Z0.32
G1 F1500 E0
G1 F720 X86.767 Y87.889 E0.14378
G1 X88.98 Y87.22 E0.28699
G1 X130.658 Y87.22 E2.86868
G1 X132.337 Y87.606 E2.9754
G1 X133.314 Y87.949 E3.03954
G1 X134.799 Y88.971 E3.1512
G1 X135.814 Y89.842 E3.23405
G1 X137.111 Y91.767 E3.37783
G1 X137.78 Y93.98 E3.52104
G1 X137.78 Y125.658 E5.48329
G1 X137.394 Y127.337 E5.59001
G1 X137.051 Y128.314 E5.65415
G1 X136.029 Y129.799 E5.76581
G1 X135.158 Y130.814 E5.84866
G1 X133.233 Y132.111 E5.99244
G1 X131.02 Y132.78 E6.13565
G1 X89.342 Y132.78 E8.71734
G1 X87.663 Y132.394 E8.82406
G1 X86.686 Y132.051 E8.8882
G1 X85.201 Y131.029 E8.99986
G1 X84.186 Y130.158 E9.08271
G1 X82.889 Y128.233 E9.22649
G1 X82.22 Y126.02 E9.3697
G1 X82.22 Y94.342 E11.33195
G1 X82.606 Y92.663 E11.43867
G1 X82.949 Y91.686 E11.50281
G1 X83.971 Y90.201 E11.61448
G1 X84.571 Y89.501 E11.67159
G0 F648 X84.842 Y89.186
G0 F6000 X85.165 Y89.547
G1 F720 X86.976 Y88.327 E11.80685
G1 X89.05 Y87.7 E11.94106
G1 X130.603 Y87.7 E14.515
G1 X132.178 Y88.059 E14.61507
G1 X133.095 Y88.381 E14.67527
G1 X134.486 Y89.335 E14.77975
G1 X135.453 Y90.165 E14.85869
G1 X136.673 Y91.976 E14.99395
G1 X137.3 Y94.05 E15.12816
G1 X137.3 Y125.603 E17.08267
G1 X136.941 Y127.178 E17.18274
G1 X136.619 Y128.095 E17.24294
G1 X135.665 Y129.486 E17.34742
G1 X134.835 Y130.453 E17.42636
G1 X133.024 Y131.673 E17.56162
G1 X130.95 Y132.3 E17.69583
G1 X89.397 Y132.3 E20.26978
G1 X87.822 Y131.941 E20.36984
G1 X86.905 Y131.619 E20.43004
G1 X85.514 Y130.665 E20.53453
G1 X84.547 Y129.835 E20.61346
G1 X83.327 Y128.024 E20.74872
G1 X82.7 Y125.95 E20.88294
G1 X82.7 Y94.397 E22.83745
G1 X83.059 Y92.822 E22.93751
G1 X83.381 Y91.905 E22.99771
G1 X84.335 Y90.514 E23.10219
G1 X84.894 Y89.862 E23.15539
G0 F648 X85.165 Y89.547
G0 F6000 X85.488 Y89.908
G1 F720 X87.185 Y88.765 E23.28213
G1 X89.12 Y88.18 E23.40735
G1 X130.549 Y88.18 E25.97362
G1 X132.071 Y88.527 E26.07031
G1 X132.876 Y88.813 E26.12323
G1 X134.173 Y89.699 E26.22053
G1 X135.092 Y90.488 E26.29556
G1 X136.235 Y92.185 E26.4223
G1 X136.82 Y94.12 E26.54751
G1 X136.82 Y125.549 E28.49434
G1 X136.473 Y127.071 E28.59104
G1 X136.187 Y127.876 E28.64396
G1 X135.301 Y129.173 E28.74125
G1 X134.512 Y130.092 E28.81628
G1 X132.815 Y131.235 E28.94302
G1 X130.88 Y131.82 E29.06824
G1 X89.451 Y131.82 E31.63451
G1 X87.929 Y131.473 E31.7312
G1 X87.124 Y131.187 E31.78412
G1 X85.827 Y130.301 E31.88142
G1 X84.908 Y129.512 E31.95645
G1 X83.765 Y127.815 E32.08319
G1 X83.18 Y125.88 E32.2084
G1 X83.18 Y94.451 E34.15523
G1 X83.527 Y92.929 E34.25193
G1 X83.813 Y92.124 E34.30485
G1 X84.699 Y90.827 E34.40214
G1 X85.217 Y90.223 E34.45143
G0 F648 X85.488 Y89.908
G0 F6000 X85.811 Y90.269
G1 F720 X87.394 Y89.203 E34.56965
G1 X89.19 Y88.66 E34.68588
G1 X130.496 Y88.66 E37.24452
G1 X131.91 Y88.979 E37.33431
G1 X132.656 Y89.244 E37.38335
G1 X133.86 Y90.063 E37.47355
G1 X134.731 Y90.811 E37.54467
G1 X135.797 Y92.394 E37.66288
G1 X136.34 Y94.19 E37.77911
G1 X136.34 Y125.496 E39.71832
G1 X136.021 Y126.91 E39.80811
G1 X135.756 Y127.656 E39.85715
G1 X134.937 Y128.86 E39.94734
G1 X134.189 Y129.731 E40.01846
G1 X132.606 Y130.797 E40.13668
G1 X130.81 Y131.34 E40.2529
G1 X89.504 Y131.34 E42.81155
G1 X88.09 Y131.021 E42.90134
G1 X87.344 Y130.756 E42.95038
G1 X86.14 Y129.937 E43.04058
G1 X85.269 Y129.189 E43.1117
G1 X84.203 Y127.606 E43.22991
G1 X83.66 Y125.81 E43.34614
G1 X83.66 Y94.504 E45.28535
G1 X83.979 Y93.09 E45.37514
G1 X84.244 Y92.344 E45.42417
G1 X85.063 Y91.14 E45.51437
G1 X85.54 Y90.584 E45.55975
G0 F648 X85.811 Y90.269
G0 F6000 X86.131 Y90.632
G1 F720 X87.603 Y89.641 E45.66967
G1 X89.26 Y89.14 E45.7769
G1 X130.445 Y89.14 E48.32805
G1 X131.75 Y89.431 E48.41087
G1 X132.435 Y89.674 E48.4559
G1 X133.59 Y90.46 E48.54244
G1 X134.368 Y91.131 E48.60608
G1 X135.359 Y92.603 E48.716
G1 X135.86 Y94.26 E48.82322
G1 X135.86 Y125.445 E50.75494
G1 X135.569 Y126.75 E50.83776
G1 X135.326 Y127.435 E50.88278
G1 X134.54 Y128.59 E50.96932
G1 X133.869 Y129.368 E51.03296
G1 X132.397 Y130.359 E51.14288
G1 X130.74 Y130.86 E51.25011
G1 X89.555 Y130.86 E53.80126
G1 X88.25 Y130.569 E53.88408
G1 X87.565 Y130.326 E53.92911
G1 X86.41 Y129.54 E54.01565
G1 X85.632 Y128.869 E54.07929
G1 X84.641 Y127.397 E54.18921
G1 X84.14 Y125.74 E54.29644
G1 X84.14 Y94.555 E56.22815
G1 X84.431 Y93.25 E56.31097
G1 X84.674 Y92.565 E56.35599
G1 X85.46 Y91.41 E56.44253
G1 X85.86 Y90.947 E56.48043
G0 F648 X86.131 Y90.632
G0 F6000 X86.453 Y90.994
G1 F720 X87.812 Y90.079 E56.58192
G1 X89.33 Y89.62 E56.68015
G1 X130.391 Y89.62 E59.22362
G1 X131.589 Y89.883 E59.2996
G1 X132.217 Y90.106 E59.34088
G1 X133.276 Y90.823 E59.4201
G1 X134.006 Y91.453 E59.47983
G1 X134.921 Y92.812 E59.58131
G1 X135.38 Y94.33 E59.67955
G1 X135.38 Y125.391 E61.60358
G1 X135.117 Y126.589 E61.67955
G1 X134.894 Y127.217 E61.72083
G1 X134.177 Y128.276 E61.80005
G1 X133.547 Y129.006 E61.85978
G1 X132.188 Y129.921 E61.96127
G1 X130.67 Y130.38 E62.0595
G1 X89.609 Y130.38 E64.60297
G1 X88.411 Y130.117 E64.67895
G1 X87.783 Y129.894 E64.72023
G1 X86.724 Y129.177 E64.79945
G1 X85.994 Y128.547 E64.85918
G1 X85.079 Y127.188 E64.96066
G1 X84.62 Y125.67 E65.0589
G1 X84.62 Y94.609 E66.98293
G1 X84.883 Y93.411 E67.0589
G1 X85.106 Y92.783 E67.10018
G1 X85.823 Y91.724 E67.1794
G1 X86.182 Y91.309 E67.21339
G0 F648 X86.453 Y90.994
G0 F6000 X86.775 Y91.356
G1 F720 X88.021 Y90.517 E67.30644
G1 X89.4 Y90.1 E67.39568
G1 X130.338 Y90.1 E69.93153
G1 X131.486 Y90.352 E70.00434
G1 X131.998 Y90.537 E70.03806
G1 X132.962 Y91.186 E70.11004
G1 X133.644 Y91.775 E70.16586
G1 X134.483 Y93.021 E70.25891
G1 X134.9 Y94.4 E70.34815
G1 X134.9 Y125.338 E72.26457
G1 X134.648 Y126.486 E72.33737
G1 X134.463 Y126.998 E72.37109
G1 X133.814 Y127.962 E72.44308
G1 X133.225 Y128.644 E72.4989
G1 X131.979 Y129.483 E72.59195
G1 X130.6 Y129.9 E72.68119
G1 X89.662 Y129.9 E75.21704
G1 X88.514 Y129.648 E75.28984
G1 X88.002 Y129.463 E75.32356
G1 X87.038 Y128.814 E75.39555
G1 X86.356 Y128.225 E75.45137
G1 X85.517 Y126.979 E75.54442
G1 X85.1 Y125.6 E75.63366
G1 X85.1 Y94.662 E77.55007
G1 X85.352 Y93.514 E77.62288
G1 X85.537 Y93.002 E77.6566
G1 X86.186 Y92.038 E77.72858
G1 X86.504 Y91.67 E77.75871
G0 F648 X86.775 Y91.356
G0 F6000 X87.097 Y91.718
G1 F720 X88.23 Y90.955 E77.84332
G1 X89.47 Y90.58 E77.92357
G1 X130.285 Y90.58 E80.4518
G1 X131.383 Y90.821 E80.52143
G1 X131.779 Y90.968 E80.5476
G1 X132.648 Y91.549 E80.61235
G1 X133.282 Y92.097 E80.66426
G1 X134.045 Y93.23 E80.74887
G1 X134.42 Y94.47 E80.82912
G1 X134.42 Y125.285 E82.73791
G1 X134.179 Y126.383 E82.80754
G1 X134.032 Y126.779 E82.83371
G1 X133.451 Y127.648 E82.89846
G1 X132.903 Y128.282 E82.95037
G1 X131.77 Y129.045 E83.03498
G1 X130.53 Y129.42 E83.11523
G1 X89.715 Y129.42 E85.64346
G1 X88.617 Y129.179 E85.71309
G1 X88.221 Y129.032 E85.73926
G1 X87.352 Y128.451 E85.80401
G1 X86.718 Y127.903 E85.85592
G1 X85.955 Y126.77 E85.94053
G1 X85.58 Y125.53 E86.02078
G1 X85.58 Y94.715 E87.92957
G1 X85.821 Y93.617 E87.99921
G1 X85.968 Y93.221 E88.02537
G1 X86.549 Y92.352 E88.09012
G1 X86.825 Y92.032 E88.1163
G0 F648 X87.097 Y91.718
G0 F6000 X87.419 Y92.08
G1 F720 X88.439 Y91.393 E88.19248
G1 X89.54 Y91.06 E88.26373
G1 X130.232 Y91.06 E90.78434
G1 X131.28 Y91.29 E90.8508
G1 X131.558 Y91.398 E90.86928
G1 X132.334 Y91.912 E90.92693
G1 X132.92 Y92.419 E90.97493
G1 X133.607 Y93.439 E91.05111
G1 X133.94 Y94.54 E91.12236
G1 X133.94 Y125.232 E93.02354
G1 X133.71 Y126.28 E93.09
G1 X133.602 Y126.558 E93.10847
G1 X133.088 Y127.334 E93.16613
G1 X132.581 Y127.92 E93.21413
G1 X131.561 Y128.607 E93.29031
G1 X130.46 Y128.94 E93.36156
G1 X89.768 Y128.94 E95.88217
G1 X88.72 Y128.71 E95.94863
G1 X88.442 Y128.602 E95.9671
G1 X87.666 Y128.088 E96.02476
G1 X87.08 Y127.581 E96.07276
G1 X86.393 Y126.561 E96.14894
G1 X86.06 Y125.46 E96.22019
G1 X86.06 Y94.768 E98.12136
G1 X86.29 Y93.72 E98.18783
G1 X86.398 Y93.442 E98.2063
G1 X86.912 Y92.666 E98.26396
G1 X87.147 Y92.394 E98.28622
G0 F648 X87.419 Y92.08
G0 F6000 X87.74 Y92.442
G1 F720 X88.648 Y91.831 E98.35402
G1 X89.61 Y91.54 E98.41627
G1 X130.179 Y91.54 E100.92927
G1 X131.177 Y91.759 E100.99256
G1 X131.337 Y91.827 E101.00333
G1 X132.069 Y92.312 E101.05772
G1 X132.558 Y92.74 E101.09797
G1 X133.169 Y93.648 E101.16577
G1 X133.46 Y94.61 E101.22802
G1 X133.46 Y125.179 E103.12158
G1 X133.241 Y126.177 E103.18487
G1 X133.173 Y126.337 E103.19564
G1 X132.688 Y127.069 E103.25003
G1 X132.26 Y127.558 E103.29028
G1 X131.352 Y128.169 E103.35808
G1 X130.39 Y128.46 E103.42033
G1 X89.821 Y128.46 E105.93333
G1 X88.823 Y128.241 E105.99662
G1 X88.663 Y128.173 E106.00739
G1 X87.931 Y127.688 E106.06178
G1 X87.442 Y127.26 E106.10203
G1 X86.831 Y126.352 E106.16983
G1 X86.54 Y125.39 E106.23208
G1 X86.54 Y94.821 E108.12564
G1 X86.759 Y93.823 E108.18893
G1 X86.827 Y93.663 E108.1997
G1 X87.312 Y92.931 E108.25409
G1 X87.466 Y92.755 E108.26858
G0 F648 X87.74 Y92.442
G0 F6000 X88.06 Y92.805
G1 F720 X88.857 Y92.269 E108.32807
G1 X89.68 Y92.02 E108.38133
G1 X130.126 Y92.02 E110.88671
G1 X131.074 Y92.228 E110.94683
G1 X131.753 Y92.673 E110.99712
G1 X132.195 Y93.06 E111.03351
G1 X132.731 Y93.857 E111.093
G1 X132.98 Y94.68 E111.14626
G1 X132.98 Y125.126 E113.0322
G1 X132.772 Y126.074 E113.09232
G1 X132.327 Y126.753 E113.14261
G1 X131.94 Y127.195 E113.179
G1 X131.143 Y127.731 E113.23849
G1 X130.32 Y127.98 E113.29175
G1 X89.874 Y127.98 E115.79713
G1 X88.926 Y127.772 E115.85725
G1 X88.247 Y127.327 E115.90754
G1 X87.805 Y126.94 E115.94393
G1 X87.269 Y126.143 E116.00342
G1 X87.02 Y125.32 E116.05668
G1 X87.02 Y94.874 E117.94262
G1 X87.228 Y93.926 E118.00274
G1 X87.673 Y93.247 E118.05303
G1 X87.786 Y93.118 E118.06365
G0 F648 X88.06 Y92.805
G0 F6000 X88.381 Y93.168
G1 F720 X89.066 Y92.707 E118.1148
G1 X89.75 Y92.5 E118.15906
G1 X130.073 Y92.5 E120.65682
G1 X130.884 Y92.678 E120.70825
G1 X131.49 Y93.075 E120.75313
G1 X131.832 Y93.381 E120.78155
G1 X132.293 Y94.066 E120.8327
G1 X132.5 Y94.75 E120.87697
G1 X132.5 Y125.073 E122.75528
G1 X132.322 Y125.884 E122.80672
G1 X131.925 Y126.49 E122.85159
G1 X131.619 Y126.832 E122.88002
G1 X130.934 Y127.293 E122.93116
G1 X130.25 Y127.5 E122.97543
G1 X89.927 Y127.5 E125.47319
G1 X89.116 Y127.322 E125.52462
G1 X88.51 Y126.925 E125.56949
G1 X88.168 Y126.619 E125.59792
G1 X87.707 Y125.934 E125.64907
G1 X87.5 Y125.25 E125.69333
G1 X87.5 Y94.927 E127.57165
G1 X87.678 Y94.116 E127.62308
G1 X88.075 Y93.51 E127.66796
G1 X88.104 Y93.478 E127.67063
G0 F648 X88.381 Y93.168
G0 F6000 X88.698 Y93.533
G1 F720 X89.275 Y93.145 E127.71371
G1 X89.82 Y92.98 E127.74898
G1 X130.02 Y92.98 E130.23911
G1 X130.694 Y93.128 E130.28186
G1 X131.227 Y93.477 E130.32132
G1 X131.467 Y93.698 E130.34153
G1 X131.855 Y94.275 E130.3846
G1 X132.02 Y94.82 E130.41987
G1 X132.02 Y125.02 E132.29057
G1 X131.872 Y125.694 E132.33332
G1 X131.523 Y126.227 E132.37278
G1 X131.302 Y126.467 E132.39299
G1 X130.725 Y126.855 E132.43606
G1 X130.18 Y127.02 E132.47134
G1 X89.98 Y127.02 E134.96147
G1 X89.306 Y126.872 E135.00422
G1 X88.773 Y126.523 E135.04368
G1 X88.533 Y126.302 E135.06389
G1 X88.145 Y125.725 E135.10696
G1 X87.98 Y125.18 E135.14223
G1 X87.98 Y94.98 E137.01293
G1 X88.128 Y94.306 E137.05568
G1 X88.428 Y93.848 E137.08959
G0 F648 X88.477 Y93.773
G0 X88.698 Y93.533
G0 F6000 X89.013 Y93.9
G1 F720 X89.484 Y93.583 E137.12476
G1 X89.89 Y93.46 E137.15104
G1 X129.967 Y93.46 E139.63355
G1 X130.504 Y93.578 E139.66761
G1 X130.964 Y93.879 E139.70166
G1 X131.1 Y94.013 E139.71349
G1 X131.417 Y94.484 E139.74866
G1 X131.54 Y94.89 E139.77494
G1 X131.54 Y124.967 E141.63802
G1 X131.422 Y125.504 E141.67207
G1 X131.121 Y125.964 E141.70612
G1 X130.987 Y126.1 E141.71795
G1 X130.516 Y126.417 E141.75312
G1 X130.11 Y126.54 E141.7794
G1 X90.033 Y126.54 E144.26191
G1 X89.496 Y126.422 E144.29597
G1 X89.036 Y126.121 E144.33002
G1 X88.9 Y125.987 E144.34185
G1 X88.583 Y125.516 E144.37702
G1 X88.46 Y125.11 E144.4033
G1 X88.46 Y95.033 E146.26638
G1 X88.578 Y94.496 E146.30043
G1 X88.756 Y94.225 E146.32052
G0 F648 X88.879 Y94.036
G0 X89.013 Y93.9
G0 F6000 X89.281 Y94.298
G1 F720 X89.693 Y94.021 E146.35127
G1 X89.96 Y93.94 E146.36855
G1 X129.913 Y93.94 E148.84339
G1 X130.316 Y94.029 E148.86895
G1 X130.702 Y94.281 E148.89751
G1 X130.979 Y94.693 E148.92826
G1 X131.06 Y94.96 E148.94554
G1 X131.06 Y124.913 E150.80094
G1 X130.971 Y125.316 E150.82651
G1 X130.719 Y125.702 E150.85506
G1 X130.307 Y125.979 E150.88581
G1 X130.04 Y126.06 E150.9031
G1 X90.087 Y126.06 E153.37793
G1 X89.684 Y125.971 E153.4035
G1 X89.298 Y125.719 E153.43205
G1 X89.021 Y125.307 E153.46281
G1 X88.94 Y125.04 E153.48009
G1 X88.94 Y95.087 E155.33549
G1 X89.029 Y94.684 E155.36105
G1 X89.054 Y94.647 E155.36382
G0 F648 X89.281 Y94.298
G0 F6000 X89.939 Y95.009
G1 F720 X90.068 Y94.9 E155.37428
G1 X129.86 Y94.9 E157.83914
G1 X129.991 Y94.939 E157.84761
G1 X130.1 Y95.068 E157.85807
G1 X130.1 Y124.86 E159.7035
G1 X130.061 Y124.991 E159.71196
G1 X129.932 Y125.1 E159.72242
G1 X90.14 Y125.1 E162.18729
G1 X90.009 Y125.061 E162.19575
G1 X89.9 Y124.932 E162.20622
G1 X89.9 Y95.42 E164.0343
G0 F648 X89.9 Y95.14
G0 X89.939 Y95.009
G0 F6000 X89.629 Y94.642
G1 F720 X89.96 Y94.42 E164.05899
G1 X129.86 Y94.42 E166.53054
G1 X130.128 Y94.479 E166.54754
G1 X130.358 Y94.629 E166.56455
G1 X130.58 Y94.96 E166.58923
G1 X130.58 Y124.86 E168.44135
G1 X130.521 Y125.128 E168.45835
G1 X130.371 Y125.358 E168.47536
G1 X130.04 Y125.58 E168.50004
G1 X90.14 Y125.58 E170.9716
G1 X89.872 Y125.521 E170.9886
G1 X89.642 Y125.371 E171.0056
G1 X89.42 Y125.04 E171.03029
G1 X89.42 Y95.14 E172.88241
G1 X89.449 Y95.01 E172.89066
G0 F648 X89.479 Y94.872
G0 X89.629 Y94.642
G0 F6000 X90.38 Y95.38
G1 F720 X129.62 Y95.38 E175.32133
G1 X129.62 Y95.62 E175.3362
G1 X129.581 Y95.489 E175.34466
G1 X129.476 Y95.4 E175.35319
G1 X129.38 Y95.38 E175.35926
G1 X90.62 Y95.38 E177.7602
G1 X90.489 Y95.419 E177.76867
G1 X90.45 Y95.465 E177.7724
G0 F648 X90.4 Y95.524
G0 X90.38 Y95.62
G0 X90.38 Y95.38
G1 F2100 E175.7724
G1 F300 Z0.52
G0 F6000 X93.419 Y99.345 Z0.52
G1 F300 Z0.32
G1 F1500 E177.7724
G1 F720 X93.552 Y99.249 E177.78256
G1 X93.741 Y99.164 E177.7954
G1 X93.837 Y99.143 E177.80149
G1 X93.902 Y99.13 E177.80559
G1 X94.086 Y99.128 E177.81699
G1 X94.259 Y99.164 E177.82794
G1 X94.447 Y99.248 E177.84069
G1 X94.578 Y99.342 E177.85068
G1 X94.714 Y99.494 E177.86331
G1 X94.795 Y99.633 E177.87328
G1 X94.808 Y99.671 E177.87577
G1 X94.855 Y99.812 E177.88497
G1 X94.874 Y99.992 E177.89618
G1 X94.855 Y100.186 E177.90826
G1 X94.795 Y100.367 E177.92007
G1 X94.716 Y100.505 E177.92992
G1 X94.581 Y100.655 E177.94242
G1 X94.448 Y100.751 E177.95258
G1 X94.259 Y100.836 E177.96542
G1 X94.162 Y100.857 E177.97157
G1 X94.099 Y100.87 E177.97555
G1 X93.901 Y100.87 E177.98782
G1 X93.74 Y100.836 E177.99801
G1 X93.553 Y100.752 E178.01071
G1 X93.422 Y100.658 E178.02069
G1 X93.286 Y100.506 E178.03333
G1 X93.205 Y100.367 E178.04329
G1 X93.145 Y100.189 E178.05493
