;FLAVOR:Marlin
;TIME:9558
;Filament used: 11.1092m
;Layer height: 0.32
;MINX:51.343
;MINY:64.18
;MINZ:0.32
;MAXX:168.657
;MAXY:155.82
;MAXZ:28.04
;Generated with Cura_SteamEngine 5.4.0
M140 S60
M105
M190 S60
M104 S220
M105
M109 S220
M82 ;absolute extrusion mode
G28 ; home all axes
 M117 Purge extruder
 G92 E0 ; reset extruder
 G1 Z1.0 F3000 ; move z up little to prevent scratching of surface
 G1 X2 Y20 Z0.3 F5000.0 ; move to start-line position
 G1 X2 Y200.0 Z0.3 F1500.0 E15 ; draw 1st line
 G1 X2 Y200.0 Z0.4 F5000.0 ; move to side a little
 G1 X2 Y20 Z0.4 F1500.0 E30 ; draw 2nd line
 G92 E0 ; reset extruder
 G1 Z1.0 F3000 ; move z up little to prevent scratching of surface
G92 E0
G92 E0
G1 F2100 E-2
;LAYER_COUNT:87
;LAYER:0
M106 S255
G1 F300 Z0.52
G0 F6000 X56.784 Y66.146 Z0.52
;TYPE:SKIRT
G1 F300 Z0.32
G1 F1500 E0
G1 F720 X58.709 Y64.849 E0.14378
G1 X60.922 Y64.18 E0.28699
G1 X89.198 Y64.18 E2.03851
G1 X90.877 Y64.566 E2.14523
G1 X91.854 Y64.909 E2.20937
G1 X93.339 Y65.931 E2.32103
G1 X94.354 Y66.802 E2.40388
G1 X95.651 Y68.727 E2.54766
G1 X96.32 Y70.94 E2.69087
G1 X96.32 Y78.22 E3.14182
G1 X123.68 Y78.22 E4.8366
G1 X123.68 Y71.302 E5.26513
G1 X124.066 Y69.623 E5.37184
G1 X124.409 Y68.646 E5.43598
G1 X125.431 Y67.161 E5.54765
G1 X126.302 Y66.146 E5.6305
G1 X128.227 Y64.849 E5.77428
G1 X130.44 Y64.18 E5.91749
G1 X158.716 Y64.18 E7.66901
G1 X160.395 Y64.566 E7.77572
G1 X161.372 Y64.909 E7.83986
G1 X162.857 Y65.931 E7.95153
G1 X163.872 Y66.802 E8.03438
G1 X165.169 Y68.727 E8.17816
G1 X165.838 Y70.94 E8.32137
G1 X165.838 Y83.078 E9.07324
G1 X166.682 Y83.791 E9.14168
G1 X167.982 Y85.717 E9.28562
G1 X168.656 Y87.94 E9.42951
G1 X168.657 Y139.698 E12.63559
G1 X168.271 Y141.377 E12.7423
G1 X167.928 Y142.354 E12.80644
G1 X166.906 Y143.839 E12.91811
G1 X166.073 Y144.806 E12.99717
G1 X165.838 Y144.986 E13.01551
G1 X165.838 Y148.698 E13.24544
G1 X165.452 Y150.377 E13.35216
G1 X165.109 Y151.354 E13.4163
G1 X164.087 Y152.839 E13.52796
G1 X163.216 Y153.854 E13.61081
G1 X161.291 Y155.151 E13.75459
G1 X159.078 Y155.82 E13.8978
G1 X130.802 Y155.82 E15.64932
G1 X129.123 Y155.434 E15.75604
G1 X128.146 Y155.091 E15.82018
G1 X126.661 Y154.069 E15.93184
G1 X125.646 Y153.198 E16.01469
G1 X124.349 Y151.273 E16.15847
G1 X123.68 Y149.06 E16.30168
G1 X123.68 Y97.78 E19.47815
G1 X96.32 Y97.78 E21.17293
G1 X96.32 Y147.698 E24.26504
G1 X95.934 Y149.377 E24.37175
G1 X95.591 Y150.354 E24.43589
G1 X94.569 Y151.839 E24.54756
G1 X93.698 Y152.854 E24.63041
G1 X91.773 Y154.151 E24.77419
G1 X89.56 Y154.82 E24.9174
G1 X61.284 Y154.82 E26.66892
G1 X59.605 Y154.434 E26.77563
G1 X58.628 Y154.091 E26.83977
G1 X57.143 Y153.069 E26.95144
G1 X56.128 Y152.198 E27.03429
G1 X54.831 Y150.273 E27.17807
G1 X54.162 Y148.06 E27.32128
G1 X54.162 Y144.922 E27.51566
G1 X53.318 Y144.209 E27.5841
G1 X52.018 Y142.283 E27.72803
G1 X51.344 Y140.06 E27.87192
G1 X51.343 Y88.302 E31.07801
G1 X51.729 Y86.623 E31.18472
G1 X52.072 Y85.646 E31.24886
G1 X53.094 Y84.161 E31.36053
G1 X53.927 Y83.194 E31.43959
G1 X54.162 Y83.014 E31.45792
G1 X54.162 Y71.302 E32.18341
G1 X54.548 Y69.623 E32.29012
G1 X54.891 Y68.646 E32.35426
G1 X55.913 Y67.161 E32.46593
G1 X56.513 Y66.461 E32.52304
G0 F648 X56.784 Y66.146
G0 F6000 X57.107 Y66.507
G1 F720 X56.277 Y67.474 E32.60198
G1 X55.323 Y68.865 E32.70646
G1 X55.001 Y69.782 E32.76666
G1 X54.642 Y71.357 E32.86672
G1 X54.642 Y83.27 E33.60466
G1 X54.291 Y83.507 E33.63089
G1 X53.458 Y84.474 E33.70995
G1 X52.504 Y85.865 E33.81444
G1 X52.182 Y86.782 E33.87464
G1 X51.823 Y88.357 E33.9747
G1 X51.824 Y139.99 E37.17304
G1 X52.455 Y142.072 E37.3078
G1 X53.679 Y143.885 E37.4433
G1 X54.642 Y144.699 E37.52141
G1 X54.642 Y147.99 E37.72526
G1 X55.269 Y150.064 E37.85948
G1 X56.489 Y151.875 E37.99474
G1 X57.456 Y152.705 E38.07368
G1 X58.847 Y153.659 E38.17816
G1 X59.764 Y153.981 E38.23836
G1 X61.339 Y154.34 E38.33842
G1 X89.49 Y154.34 E40.0822
G1 X91.564 Y153.713 E40.21641
G1 X93.375 Y152.493 E40.35167
G1 X94.205 Y151.526 E40.43061
G1 X95.159 Y150.135 E40.53509
G1 X95.481 Y149.218 E40.5953
G1 X95.84 Y147.643 E40.69536
G1 X95.84 Y97.3 E43.81379
G1 X124.16 Y97.3 E45.56804
G1 X124.16 Y148.99 E48.7699
G1 X124.787 Y151.064 E48.90412
G1 X126.007 Y152.875 E49.03938
G1 X126.974 Y153.705 E49.11832
G1 X128.365 Y154.659 E49.2228
G1 X129.282 Y154.981 E49.283
G1 X130.857 Y155.34 E49.38306
G1 X159.008 Y155.34 E51.12684
G1 X161.082 Y154.713 E51.26105
G1 X162.893 Y153.493 E51.39631
G1 X163.723 Y152.526 E51.47525
G1 X164.677 Y151.135 E51.57973
G1 X164.999 Y150.218 E51.63994
G1 X165.358 Y148.643 E51.74
G1 X165.358 Y144.73 E51.98239
G1 X165.709 Y144.493 E52.00862
G1 X166.542 Y143.526 E52.08768
G1 X167.496 Y142.135 E52.19216
G1 X167.818 Y141.218 E52.25236
G1 X168.177 Y139.643 E52.35243
G1 X168.176 Y88.01 E55.55076
G1 X167.545 Y85.928 E55.68552
G1 X166.321 Y84.115 E55.82103
G1 X165.358 Y83.301 E55.89913
G1 X165.358 Y71.01 E56.66048
G1 X164.731 Y68.936 E56.7947
G1 X163.511 Y67.125 E56.92996
G1 X162.544 Y66.295 E57.00889
G1 X161.153 Y65.341 E57.11338
G1 X160.236 Y65.019 E57.17358
G1 X158.661 Y64.66 E57.27364
G1 X130.51 Y64.66 E59.01742
G1 X128.436 Y65.287 E59.15163
G1 X126.625 Y66.507 E59.28689
G1 X125.795 Y67.474 E59.36583
G1 X124.841 Y68.865 E59.47031
G1 X124.519 Y69.782 E59.53051
G1 X124.16 Y71.357 E59.63058
G1 X124.16 Y78.7 E60.08543
G1 X95.84 Y78.7 E61.83968
G1 X95.84 Y71.01 E62.31602
G1 X95.213 Y68.936 E62.45024
G1 X93.993 Y67.125 E62.5855
G1 X93.026 Y66.295 E62.66443
G1 X91.635 Y65.341 E62.76892
G1 X90.718 Y65.019 E62.82912
G1 X89.143 Y64.66 E62.92918
G1 X60.992 Y64.66 E64.67296
G1 X58.918 Y65.287 E64.80717
G1 X57.452 Y66.275 E64.91668
G0 F648 X57.107 Y66.507
G0 F6000 X57.43 Y66.868
G1 F720 X56.641 Y67.787 E64.99171
G1 X55.755 Y69.084 E65.089
G1 X55.469 Y69.889 E65.14192
G1 X55.122 Y71.411 E65.23862
G1 X55.122 Y83.526 E65.98907
G1 X54.613 Y83.868 E66.02705
G1 X53.822 Y84.787 E66.10216
G1 X52.936 Y86.084 E66.19946
G1 X52.65 Y86.889 E66.25238
G1 X52.303 Y88.411 E66.34907
G1 X52.304 Y139.92 E69.53973
G1 X52.893 Y141.863 E69.6655
G1 X54.038 Y143.56 E69.7923
G1 X55.122 Y144.475 E69.88017
G1 X55.122 Y147.92 E70.09357
G1 X55.707 Y149.855 E70.21879
G1 X56.85 Y151.552 E70.34553
G1 X57.769 Y152.341 E70.42056
G1 X59.066 Y153.227 E70.51785
G1 X59.871 Y153.513 E70.57077
G1 X61.393 Y153.86 E70.66747
G1 X89.42 Y153.86 E72.40356
G1 X91.355 Y153.275 E72.52878
G1 X93.052 Y152.132 E72.65552
G1 X93.841 Y151.213 E72.73055
G1 X94.727 Y149.916 E72.82785
G1 X95.013 Y149.111 E72.88077
G1 X95.36 Y147.589 E72.97746
G1 X95.36 Y96.82 E76.12228
G1 X124.64 Y96.82 E77.93599
G1 X124.64 Y148.92 E81.16326
G1 X125.225 Y150.855 E81.28848
G1 X126.368 Y152.552 E81.41522
G1 X127.287 Y153.341 E81.49024
G1 X128.584 Y154.227 E81.58754
G1 X129.389 Y154.513 E81.64046
G1 X130.911 Y154.86 E81.73716
G1 X158.938 Y154.86 E83.47325
G1 X160.873 Y154.275 E83.59847
G1 X162.57 Y153.132 E83.72521
G1 X163.359 Y152.213 E83.80024
G1 X164.245 Y150.916 E83.89754
G1 X164.531 Y150.111 E83.95045
G1 X164.878 Y148.589 E84.04715
G1 X164.878 Y144.474 E84.30205
G1 X165.387 Y144.132 E84.34003
G1 X166.178 Y143.213 E84.41514
G1 X167.064 Y141.916 E84.51244
G1 X167.35 Y141.111 E84.56536
G1 X167.697 Y139.589 E84.66206
G1 X167.696 Y88.08 E87.85271
G1 X167.107 Y86.137 E87.97848
G1 X165.962 Y84.44 E88.10529
G1 X164.878 Y83.525 E88.19316
G1 X164.878 Y71.08 E88.96405
G1 X164.293 Y69.145 E89.08926
G1 X163.15 Y67.448 E89.216
G1 X162.231 Y66.659 E89.29103
G1 X160.934 Y65.773 E89.38833
G1 X160.129 Y65.487 E89.44125
G1 X158.607 Y65.14 E89.53794
G1 X130.58 Y65.14 E91.27404
G1 X128.645 Y65.725 E91.39926
G1 X126.948 Y66.868 E91.526
G1 X126.159 Y67.787 E91.60103
G1 X125.273 Y69.084 E91.69832
G1 X124.987 Y69.889 E91.75124
G1 X124.64 Y71.411 E91.84794
G1 X124.64 Y79.18 E92.32918
G1 X95.36 Y79.18 E94.14289
G1 X95.36 Y71.08 E94.64463
G1 X94.775 Y69.145 E94.76985
G1 X93.632 Y67.448 E94.89659
G1 X92.713 Y66.659 E94.97162
G1 X91.416 Y65.773 E95.06892
G1 X90.611 Y65.487 E95.12183
G1 X89.089 Y65.14 E95.21853
G1 X61.062 Y65.14 E96.95463
G1 X59.127 Y65.725 E97.07985
G1 X57.775 Y66.636 E97.18083
G0 F648 X57.43 Y66.868
G0 F6000 X57.753 Y67.229
G1 F720 X59.336 Y66.163 E97.29905
G1 X61.132 Y65.62 E97.41527
G1 X89.036 Y65.62 E99.14375
G1 X90.45 Y65.939 E99.23354
G1 X91.196 Y66.204 E99.28258
G1 X92.4 Y67.023 E99.37278
G1 X93.271 Y67.771 E99.4439
G1 X94.337 Y69.354 E99.56211
G1 X94.88 Y71.15 E99.67834
G1 X94.88 Y79.66 E100.20548
G1 X125.12 Y79.66 E102.07866
G1 X125.12 Y71.464 E102.58635
G1 X125.439 Y70.05 E102.67614
G1 X125.704 Y69.304 E102.72517
G1 X126.523 Y68.1 E102.81537
G1 X127.271 Y67.229 E102.88649
G1 X128.854 Y66.163 E103.00471
G1 X130.65 Y65.62 E103.12093
G1 X158.554 Y65.62 E104.84941
G1 X159.968 Y65.939 E104.9392
G1 X160.714 Y66.204 E104.98824
G1 X161.918 Y67.023 E105.07844
G1 X162.789 Y67.771 E105.14956
G1 X163.855 Y69.354 E105.26777
G1 X164.398 Y71.15 E105.384
G1 X164.398 Y83.776 E106.1661
G1 X164.564 Y83.889 E106.17854
G1 X165.601 Y84.764 E106.26258
G1 X166.67 Y86.348 E106.38096
G1 X167.216 Y88.15 E106.49759
G1 X167.217 Y139.536 E109.68063
G1 X166.898 Y140.95 E109.77042
G1 X166.633 Y141.696 E109.81946
G1 X165.814 Y142.9 E109.90966
G1 X165.065 Y143.77 E109.98077
G1 X164.398 Y144.218 E110.03054
G1 X164.398 Y148.536 E110.29801
G1 X164.079 Y149.95 E110.3878
G1 X163.814 Y150.696 E110.43684
G1 X162.995 Y151.9 E110.52704
G1 X162.247 Y152.771 E110.59816
G1 X160.664 Y153.837 E110.71637
G1 X158.868 Y154.38 E110.8326
G1 X130.964 Y154.38 E112.56108
G1 X129.55 Y154.061 E112.65086
G1 X128.804 Y153.796 E112.6999
G1 X127.6 Y152.977 E112.7901
G1 X126.729 Y152.229 E112.86122
G1 X125.663 Y150.646 E112.97944
G1 X125.12 Y148.85 E113.09566
G1 X125.12 Y96.34 E116.34833
G1 X94.88 Y96.34 E118.2215
G1 X94.88 Y147.536 E121.39277
G1 X94.561 Y148.95 E121.48256
G1 X94.296 Y149.696 E121.5316
G1 X93.477 Y150.9 E121.6218
G1 X92.729 Y151.771 E121.69292
G1 X91.146 Y152.837 E121.81113
G1 X89.35 Y153.38 E121.92736
G1 X61.446 Y153.38 E123.65583
G1 X60.032 Y153.061 E123.74562
G1 X59.286 Y152.796 E123.79466
G1 X58.082 Y151.977 E123.88486
G1 X57.211 Y151.229 E123.95598
G1 X56.145 Y149.646 E124.0742
G1 X55.602 Y147.85 E124.19042
G1 X55.602 Y144.224 E124.41503
G1 X55.436 Y144.111 E124.42747
G1 X54.399 Y143.236 E124.51152
G1 X53.33 Y141.652 E124.62989
G1 X52.784 Y139.85 E124.74652
G1 X52.783 Y88.464 E127.92956
G1 X53.102 Y87.05 E128.01935
G1 X53.367 Y86.304 E128.06839
G1 X54.186 Y85.1 E128.15859
G1 X54.935 Y84.23 E128.2297
G1 X55.602 Y83.782 E128.27947
G1 X55.602 Y71.464 E129.04249
G1 X55.921 Y70.05 E129.13228
G1 X56.186 Y69.304 E129.18132
G1 X57.005 Y68.1 E129.27152
G1 X57.482 Y67.544 E129.3169
G0 F648 X57.753 Y67.229
G0 F6000 X58.073 Y67.592
G1 F720 X59.545 Y66.601 E129.42682
G1 X61.202 Y66.1 E129.53405
G1 X88.985 Y66.1 E131.25503
G1 X90.29 Y66.391 E131.33785
G1 X90.975 Y66.634 E131.38287
G1 X92.13 Y67.42 E131.46941
G1 X92.908 Y68.091 E131.53305
G1 X93.899 Y69.563 E131.64297
G1 X94.4 Y71.22 E131.7502
G1 X94.4 Y80.14 E132.30274
G1 X125.6 Y80.14 E134.23538
G1 X125.6 Y71.515 E134.76965
G1 X125.891 Y70.21 E134.85247
G1 X126.134 Y69.525 E134.89749
G1 X126.92 Y68.37 E134.98403
G1 X127.591 Y67.592 E135.04767
G1 X129.063 Y66.601 E135.15759
G1 X130.72 Y66.1 E135.26482
G1 X158.503 Y66.1 E136.9858
G1 X159.808 Y66.391 E137.06862
G1 X160.493 Y66.634 E137.11364
G1 X161.648 Y67.42 E137.20018
G1 X162.426 Y68.091 E137.26383
G1 X163.417 Y69.563 E137.37374
G1 X163.918 Y71.22 E137.48097
G1 X163.918 Y84.032 E138.2746
G1 X164.254 Y84.256 E138.29961
G1 X165.24 Y85.088 E138.37953
G1 X166.233 Y86.559 E138.48946
G1 X166.736 Y88.22 E138.59697
G1 X166.737 Y139.485 E141.77251
G1 X166.446 Y140.79 E141.85533
G1 X166.203 Y141.475 E141.90035
G1 X165.417 Y142.63 E141.98689
G1 X164.743 Y143.408 E142.05065
G1 X163.918 Y143.963 E142.11224
G1 X163.918 Y148.485 E142.39235
G1 X163.627 Y149.79 E142.47518
G1 X163.384 Y150.475 E142.5202
G1 X162.598 Y151.63 E142.60674
G1 X161.927 Y152.408 E142.67038
G1 X160.455 Y153.399 E142.7803
G1 X158.798 Y153.9 E142.88753
G1 X131.015 Y153.9 E144.60851
G1 X129.71 Y153.609 E144.69133
G1 X129.025 Y153.366 E144.73635
G1 X127.87 Y152.58 E144.82289
G1 X127.092 Y151.909 E144.88653
G1 X126.101 Y150.437 E144.99645
G1 X125.6 Y148.78 E145.10368
G1 X125.6 Y95.86 E148.38174
G1 X94.4 Y95.86 E150.31438
G1 X94.4 Y147.485 E153.51223
G1 X94.109 Y148.79 E153.59505
G1 X93.866 Y149.475 E153.64007
G1 X93.08 Y150.63 E153.72661
G1 X92.409 Y151.408 E153.79025
G1 X90.937 Y152.399 E153.90017
G1 X89.28 Y152.9 E154.0074
G1 X61.497 Y152.9 E155.72838
G1 X60.192 Y152.609 E155.8112
G1 X59.507 Y152.366 E155.85622
G1 X58.352 Y151.58 E155.94276
G1 X57.574 Y150.909 E156.0064
G1 X56.583 Y149.437 E156.11632
G1 X56.082 Y147.78 E156.22355
G1 X56.082 Y143.968 E156.45968
G1 X55.746 Y143.744 E156.4847
G1 X54.76 Y142.912 E156.56461
G1 X53.767 Y141.441 E156.67455
G1 X53.264 Y139.78 E156.78205
G1 X53.263 Y88.515 E159.95759
G1 X53.554 Y87.21 E160.04042
G1 X53.797 Y86.525 E160.08544
G1 X54.583 Y85.37 E160.17198
G1 X55.257 Y84.592 E160.23574
G1 X56.082 Y84.037 E160.29733
G1 X56.082 Y71.515 E161.07299
G1 X56.373 Y70.21 E161.15581
G1 X56.616 Y69.525 E161.20083
G1 X57.402 Y68.37 E161.28737
G1 X57.802 Y67.907 E161.32527
G0 F648 X58.073 Y67.592
G0 F6000 X58.395 Y67.954
G1 F720 X59.754 Y67.039 E161.42676
G1 X61.272 Y66.58 E161.52499
G1 X88.931 Y66.58 E163.23829
G1 X90.129 Y66.843 E163.31427
G1 X90.757 Y67.066 E163.35555
G1 X91.816 Y67.783 E163.43477
G1 X92.546 Y68.413 E163.4945
G1 X93.461 Y69.772 E163.59598
G1 X93.92 Y71.29 E163.69422
G1 X93.92 Y80.62 E164.27215
G1 X126.08 Y80.62 E166.26426
G1 X126.08 Y71.569 E166.82491
G1 X126.343 Y70.371 E166.90089
G1 X126.566 Y69.743 E166.94217
G1 X127.283 Y68.684 E167.02139
G1 X127.913 Y67.954 E167.08112
G1 X129.272 Y67.039 E167.1826
G1 X130.79 Y66.58 E167.28084
G1 X158.449 Y66.58 E168.99414
G1 X159.647 Y66.843 E169.07011
G1 X160.275 Y67.066 E169.11139
G1 X161.334 Y67.783 E169.19061
G1 X162.064 Y68.413 E169.25034
G1 X162.979 Y69.772 E169.35183
G1 X163.438 Y71.29 E169.45006
G1 X163.438 Y84.292 E170.25545
G1 X163.944 Y84.623 E170.29291
G1 X164.879 Y85.412 E170.36869
G1 X165.796 Y86.77 E170.47019
G1 X166.256 Y88.29 E170.56856
G1 X166.257 Y139.431 E173.73643
G1 X165.994 Y140.629 E173.8124
G1 X165.771 Y141.257 E173.85368
G1 X165.054 Y142.316 E173.9329
G1 X164.422 Y143.046 E173.99271
G1 X163.438 Y143.708 E174.06617
G1 X163.438 Y148.431 E174.35873
G1 X163.175 Y149.629 E174.43471
G1 X162.952 Y150.257 E174.47599
G1 X162.235 Y151.316 E174.55521
G1 X161.605 Y152.046 E174.61494
G1 X160.246 Y152.961 E174.71642
G1 X158.728 Y153.42 E174.81466
G1 X131.069 Y153.42 E176.52796
G1 X129.871 Y153.157 E176.60393
G1 X129.243 Y152.934 E176.64521
G1 X128.184 Y152.217 E176.72443
G1 X127.454 Y151.587 E176.78416
G1 X126.539 Y150.228 E176.88565
G1 X126.08 Y148.71 E176.98388
G1 X126.08 Y95.38 E180.28734
G1 X93.92 Y95.38 E182.27945
G1 X93.92 Y147.431 E185.50368
G1 X93.657 Y148.629 E185.57965
G1 X93.434 Y149.257 E185.62093
G1 X92.717 Y150.316 E185.70015
G1 X92.087 Y151.046 E185.75988
G1 X90.728 Y151.961 E185.86137
G1 X89.21 Y152.42 E185.9596
G1 X61.551 Y152.42 E187.6729
G1 X60.353 Y152.157 E187.74888
G1 X59.725 Y151.934 E187.79016
G1 X58.666 Y151.217 E187.86938
G1 X57.936 Y150.587 E187.92911
G1 X57.021 Y149.228 E188.03059
G1 X56.562 Y147.71 E188.12883
G1 X56.562 Y143.708 E188.37673
G1 X56.056 Y143.377 E188.41418
G1 X55.121 Y142.588 E188.48996
G1 X54.204 Y141.23 E188.59146
G1 X53.744 Y139.71 E188.68984
G1 X53.743 Y88.569 E191.8577
G1 X54.006 Y87.371 E191.93367
G1 X54.229 Y86.743 E191.97495
G1 X54.946 Y85.684 E192.05417
G1 X55.578 Y84.954 E192.11398
G1 X56.562 Y84.292 E192.18745
G1 X56.562 Y71.569 E192.97556
