;FLAVOR:Marlin
;TIME:13526
;Filament used: 21.7345m
;Layer height: 0.32
;MINX:12.188
;MINY:55.741
;MINZ:0.32
;MAXX:208.789
;MAXY:164.255
;MAXZ:12.16
;Generated with Cura_SteamEngine 5.4.0
M140 S60
M105
M190 S60
M104 S220
M105
M109 S220
M82 ;absolute extrusion mode
G28 ; home all axes
 M117 Purge extruder
 G92 E0 ; reset extruder
 G1 Z1.0 F3000 ; move z up little to prevent scratching of surface
 G1 X2 Y20 Z0.3 F5000.0 ; move to start-line position
 G1 X2 Y200.0 Z0.3 F1500.0 E15 ; draw 1st line
 G1 X2 Y200.0 Z0.4 F5000.0 ; move to side a little
 G1 X2 Y20 Z0.4 F1500.0 E30 ; draw 2nd line
 G92 E0 ; reset extruder
 G1 Z1.0 F3000 ; move z up little to prevent scratching of surface
G92 E0
G92 E0
G1 F2100 E-2
;LAYER_COUNT:38
;LAYER:0
M106 S255
G1 F300 Z0.52
G0 F6000 X18.885 Y57.45 Z0.52
;TYPE:SKIRT
G1 F300 Z0.32
G1 F1500 E0
G1 F720 X47.725 Y57.338 E1.78647
G1 X49.636 Y57.796 E1.9082
G1 X50.461 Y58.105 E1.96277
G1 X52.114 Y59.269 E2.088
G1 X52.911 Y59.988 E2.15449
G1 X54.176 Y61.838 E2.29331
G1 X54.871 Y64.074 E2.43836
G1 X54.874 Y81.317 E3.50645
G1 X54.913 Y97.262 E4.49414
G1 X54.862 Y108.186 E5.17082
G1 X54.862 Y151.686 E7.86537
G1 X54.913 Y152.779 E7.93315
G1 X54.857 Y156.246 E8.14794
G1 X54.393 Y158.227 E8.27397
G1 X53.9 Y159.173 E8.34005
G1 X52.859 Y160.638 E8.45137
G1 X52.109 Y161.445 E8.51962
G1 X50.239 Y162.658 E8.65769
G1 X48.077 Y163.295 E8.7973
G1 X19.31 Y163.295 E10.57924
G1 X17.631 Y162.909 E10.68595
G1 X16.654 Y162.566 E10.75009
G1 X15.169 Y161.544 E10.86176
G1 X14.154 Y160.673 E10.94461
G1 X12.857 Y158.748 E11.08839
G1 X12.188 Y156.535 E11.2316
G1 X12.188 Y64.574 E16.928
G1 X12.572 Y62.895 E17.03469
G1 X12.916 Y61.915 E17.09902
G1 X13.935 Y60.434 E17.21038
G1 X14.79 Y59.437 E17.29174
G1 X16.719 Y58.129 E17.43611
G1 X18.488 Y57.574 E17.55095
G0 F648 X18.885 Y57.45
G0 F6000 X18.96 Y57.93
G1 F720 X47.669 Y57.818 E19.32931
G1 X49.467 Y58.245 E19.44378
G1 X50.235 Y58.533 E19.49459
G1 X51.793 Y59.625 E19.61244
G1 X52.546 Y60.304 E19.67525
G1 X53.739 Y62.049 E19.80618
G1 X54.391 Y64.146 E19.94221
G1 X54.394 Y81.317 E21.00585
G1 X54.433 Y97.26 E21.99342
G1 X54.382 Y108.184 E22.6701
G1 X54.382 Y151.686 E25.36477
G1 X54.433 Y152.771 E25.43206
G1 X54.378 Y156.189 E25.64381
G1 X53.941 Y158.056 E25.76258
G1 X53.474 Y158.951 E25.82511
G1 X52.507 Y160.311 E25.92848
G1 X51.797 Y161.075 E25.99309
G1 X50.035 Y162.218 E26.12319
G1 X48.009 Y162.815 E26.25402
G1 X19.365 Y162.815 E28.02833
G1 X17.79 Y162.456 E28.1284
G1 X16.873 Y162.134 E28.1886
G1 X15.482 Y161.18 E28.29308
G1 X14.515 Y160.35 E28.37202
G1 X13.295 Y158.539 E28.50728
G1 X12.668 Y156.465 E28.64149
G1 X12.668 Y64.628 E34.33021
G1 X13.025 Y63.054 E34.43019
G1 X13.348 Y62.134 E34.49059
G1 X14.299 Y60.747 E34.59476
G1 X15.114 Y59.797 E34.67229
G1 X16.928 Y58.567 E34.80806
G1 X18.563 Y58.054 E34.9142
G0 F648 X18.96 Y57.93
G0 F6000 X19.035 Y58.41
G1 F720 X47.615 Y58.298 E36.68457
G1 X49.299 Y58.695 E36.79174
G1 X50.012 Y58.962 E36.8389
G1 X51.472 Y59.982 E36.94922
G1 X52.183 Y60.623 E37.00852
G1 X53.303 Y62.261 E37.13143
G1 X53.911 Y64.217 E37.25831
G1 X53.914 Y81.317 E38.31755
G1 X53.953 Y97.258 E39.305
G1 X53.902 Y108.182 E39.98168
G1 X53.902 Y151.686 E42.67648
G1 X53.953 Y152.763 E42.74326
G1 X53.899 Y156.131 E42.95192
G1 X53.488 Y157.885 E43.06351
G1 X53.048 Y158.729 E43.12247
G1 X52.155 Y159.984 E43.21788
G1 X51.485 Y160.705 E43.27885
G1 X49.831 Y161.778 E43.40097
G1 X47.941 Y162.335 E43.52302
G1 X19.419 Y162.335 E45.28978
G1 X17.897 Y161.988 E45.38648
G1 X17.092 Y161.702 E45.4394
G1 X15.795 Y160.816 E45.53669
G1 X14.876 Y160.027 E45.61172
G1 X13.733 Y158.33 E45.73846
G1 X13.148 Y156.395 E45.86368
G1 X13.148 Y64.68 E51.54484
G1 X13.478 Y63.213 E51.63799
G1 X13.78 Y62.352 E51.69451
G1 X14.663 Y61.06 E51.79144
G1 X15.438 Y60.157 E51.86515
G1 X17.137 Y59.005 E51.99231
G1 X18.639 Y58.534 E52.08981
G0 F648 X19.035 Y58.41
G0 F6000 X19.11 Y58.89
G1 F720 X47.562 Y58.778 E53.85225
G1 X49.131 Y59.145 E53.95206
G1 X49.788 Y59.391 E53.99552
G1 X51.151 Y60.339 E54.09836
G1 X51.82 Y60.942 E54.15415
G1 X52.866 Y62.472 E54.26896
G1 X53.431 Y64.289 E54.38682
G1 X53.434 Y81.317 E55.4416
G1 X53.473 Y97.256 E56.42892
G1 X53.422 Y108.18 E57.1056
G1 X53.422 Y151.686 E59.80052
G1 X53.473 Y152.755 E59.86682
G1 X53.42 Y156.074 E60.07244
G1 X53.036 Y157.714 E60.17677
G1 X52.622 Y158.507 E60.23218
G1 X51.803 Y159.657 E60.31964
G1 X51.173 Y160.335 E60.37697
G1 X49.627 Y161.338 E60.49112
G1 X47.873 Y161.855 E60.60439
G1 X19.472 Y161.855 E62.36365
G1 X18.058 Y161.536 E62.45344
G1 X17.312 Y161.271 E62.50248
G1 X16.108 Y160.452 E62.59268
G1 X15.237 Y159.704 E62.6638
G1 X14.171 Y158.121 E62.78202
G1 X13.628 Y156.325 E62.89824
G1 X13.628 Y64.731 E68.57191
G1 X13.931 Y63.372 E68.65816
G1 X14.212 Y62.571 E68.71074
G1 X15.027 Y61.373 E68.80049
G1 X15.762 Y60.517 E68.87038
G1 X17.346 Y59.443 E68.98893
G1 X18.713 Y59.014 E69.07768
G0 F648 X19.11 Y58.89
G0 F6000 X19.185 Y59.37
G1 F720 X47.509 Y59.258 E70.83218
G1 X49.022 Y59.612 E70.92843
G1 X49.561 Y59.818 E70.96418
G1 X50.83 Y60.696 E71.05976
G1 X51.457 Y61.261 E71.11205
G1 X52.43 Y62.684 E71.21883
G1 X52.951 Y64.36 E71.32755
G1 X52.954 Y81.317 E72.37792
G1 X52.993 Y97.254 E73.36512
G1 X52.942 Y108.178 E74.0418
G1 X52.942 Y151.686 E76.73685
G1 X52.993 Y152.747 E76.80265
G1 X52.941 Y156.017 E77.00523
G1 X52.584 Y157.543 E77.10231
G1 X52.23 Y158.23 E77.15018
G1 X51.451 Y159.33 E77.23367
G1 X50.861 Y159.965 E77.28737
G1 X49.423 Y160.898 E77.39355
G1 X47.805 Y161.375 E77.49804
G1 X19.523 Y161.375 E79.24993
G1 X18.218 Y161.084 E79.33275
G1 X17.533 Y160.841 E79.37777
G1 X16.378 Y160.055 E79.46431
G1 X15.6 Y159.384 E79.52795
G1 X14.609 Y157.912 E79.63787
G1 X14.108 Y156.255 E79.7451
G1 X14.108 Y64.786 E85.41103
G1 X14.4 Y63.476 E85.49416
G1 X14.643 Y62.791 E85.53919
G1 X15.424 Y61.643 E85.62519
G1 X16.085 Y60.877 E85.68787
G1 X17.555 Y59.881 E85.79786
G1 X18.788 Y59.494 E85.87791
G0 F648 X19.185 Y59.37
G0 F6000 X19.26 Y59.85
G1 F720 X47.453 Y59.738 E87.6243
G1 X48.851 Y60.061 E87.71318
G1 X49.339 Y60.247 E87.74553
G1 X50.509 Y61.053 E87.83353
G1 X51.094 Y61.58 E87.88231
G1 X51.993 Y62.895 E87.98098
G1 X52.471 Y64.432 E88.08068
G1 X52.474 Y81.317 E89.1266
G1 X52.513 Y97.252 E90.11368
G1 X52.462 Y108.176 E90.79036
G1 X52.462 Y151.686 E93.48553
G1 X52.513 Y152.739 E93.55083
G1 X52.462 Y155.96 E93.75038
G1 X52.131 Y157.375 E93.84039
G1 X51.837 Y157.954 E93.88062
G1 X51.099 Y159.003 E93.96006
G1 X50.549 Y159.595 E94.01012
G1 X49.219 Y160.458 E94.10833
G1 X47.737 Y160.895 E94.20404
G1 X19.577 Y160.895 E95.94837
G1 X18.379 Y160.632 E96.02435
G1 X17.751 Y160.409 E96.06563
G1 X16.692 Y159.692 E96.14485
G1 X15.962 Y159.062 E96.20458
G1 X15.047 Y157.703 E96.30606
G1 X14.588 Y156.185 E96.40429
G1 X14.588 Y64.84 E102.06254
G1 X14.852 Y63.637 E102.13883
G1 X15.075 Y63.009 E102.18011
G1 X15.788 Y61.956 E102.25888
G1 X16.408 Y61.237 E102.31769
G1 X17.764 Y60.319 E102.41913
G1 X18.863 Y59.974 E102.49048
G0 F648 X19.26 Y59.85
G0 F6000 X19.335 Y60.33
G1 F720 X47.399 Y60.218 E104.22888
G1 X48.68 Y60.51 E104.31027
G1 X49.116 Y60.676 E104.33916
G1 X50.188 Y61.41 E104.41964
G1 X50.731 Y61.899 E104.46491
G1 X51.557 Y63.107 E104.55555
G1 X51.991 Y64.503 E104.64611
G1 X51.994 Y81.317 E105.68763
G1 X52.033 Y97.25 E106.67458
G1 X51.982 Y108.174 E107.35126
G1 X51.982 Y151.686 E110.04656
G1 X52.033 Y152.731 E110.11136
G1 X51.983 Y155.903 E110.30787
G1 X51.678 Y157.206 E110.39077
G1 X51.443 Y157.679 E110.42348
G1 X50.747 Y158.676 E110.4988
G1 X50.237 Y159.225 E110.54522
G1 X49.015 Y160.018 E110.63546
G1 X47.669 Y160.415 E110.72238
G1 X19.63 Y160.415 E112.45922
G1 X18.482 Y160.163 E112.53203
G1 X17.97 Y159.978 E112.56575
G1 X17.006 Y159.329 E112.63773
G1 X16.324 Y158.74 E112.69355
G1 X15.485 Y157.494 E112.7866
G1 X15.068 Y156.115 E112.87584
G1 X15.068 Y64.893 E118.52647
G1 X15.321 Y63.74 E118.59959
G1 X15.506 Y63.228 E118.63331
G1 X16.151 Y62.27 E118.70485
G1 X16.731 Y61.598 E118.75983
G1 X17.973 Y60.757 E118.85275
G1 X18.938 Y60.454 E118.9154
G0 F648 X19.335 Y60.33
G0 F6000 X19.409 Y60.81
G1 F720 X47.348 Y60.698 E120.64606
G1 X48.509 Y60.959 E120.71977
G1 X48.893 Y61.105 E120.74522
G1 X49.867 Y61.767 E120.81817
G1 X50.368 Y62.218 E120.85992
G1 X51.121 Y63.319 E120.94255
G1 X51.511 Y64.574 E121.02395
G1 X51.514 Y81.317 E122.06108
G1 X51.553 Y97.248 E123.0479
G1 X51.502 Y108.172 E123.72458
G1 X51.502 Y151.686 E126.42
G1 X51.553 Y152.723 E126.48432
G1 X51.504 Y155.846 E126.67779
G1 X51.225 Y157.039 E126.75368
G1 X51.013 Y157.465 E126.78316
G1 X50.395 Y158.349 E126.84997
G1 X49.925 Y158.855 E126.89275
G1 X48.811 Y159.578 E126.97501
G1 X47.601 Y159.935 E127.05316
G1 X19.683 Y159.935 E128.7825
G1 X18.585 Y159.694 E128.85214
G1 X18.189 Y159.547 E128.8783
G1 X17.32 Y158.966 E128.94305
G1 X16.686 Y158.418 E128.99496
G1 X15.923 Y157.285 E129.07957
G1 X15.548 Y156.045 E129.15982
G1 X15.548 Y64.946 E134.80283
G1 X15.79 Y63.843 E134.87278
G1 X15.937 Y63.447 E134.89894
G1 X16.514 Y62.584 E134.96325
G1 X17.054 Y61.959 E135.01441
G1 X18.183 Y61.194 E135.09889
G1 X19.012 Y60.934 E135.1527
G0 F648 X19.409 Y60.81
G0 F6000 X19.483 Y61.29
G1 F720 X47.295 Y61.178 E136.8755
G1 X48.339 Y61.408 E136.94172
G1 X48.671 Y61.534 E136.96371
G1 X49.546 Y62.124 E137.02908
G1 X50.005 Y62.537 E137.06733
G1 X50.684 Y63.53 E137.14185
G1 X51.031 Y64.646 E137.21424
G1 X51.034 Y81.317 E138.2469
G1 X51.073 Y97.246 E139.23361
G1 X51.022 Y108.17 E139.91029
G1 X51.022 Y151.686 E142.60583
G1 X51.073 Y152.716 E142.66971
G1 X51.025 Y155.789 E142.86008
G1 X50.772 Y156.872 E142.92898
G1 X50.583 Y157.251 E142.95521
G1 X50.043 Y158.022 E143.01352
G1 X49.613 Y158.485 E143.05266
G1 X48.607 Y159.138 E143.12695
G1 X47.533 Y159.455 E143.19631
G1 X19.736 Y159.455 E144.91816
G1 X18.688 Y159.225 E144.98463
G1 X18.41 Y159.117 E145.0031
G1 X17.634 Y158.603 E145.06076
G1 X17.048 Y158.096 E145.10875
G1 X16.361 Y157.076 E145.18493
G1 X16.028 Y155.975 E145.25618
G1 X16.028 Y64.999 E150.89157
G1 X16.259 Y63.946 E150.95835
G1 X16.367 Y63.668 E150.97682
G1 X16.877 Y62.898 E151.03403
G1 X17.377 Y62.32 E151.08137
G1 X18.393 Y61.631 E151.15742
G1 X19.086 Y61.414 E151.2024
G0 F648 X19.483 Y61.29
G0 F6000 X19.557 Y61.77
G1 F720 X47.245 Y61.658 E152.91751
G1 X48.168 Y61.857 E152.976
G1 X48.452 Y61.965 E152.99482
G1 X49.225 Y62.481 E153.05239
G1 X49.642 Y62.856 E153.08713
G1 X50.248 Y63.742 E153.15362
G1 X50.551 Y64.717 E153.21686
G1 X50.554 Y81.317 E154.24513
G1 X50.593 Y97.244 E155.23171
G1 X50.542 Y108.168 E155.90839
G1 X50.542 Y151.686 E158.60405
G1 X50.593 Y152.709 E158.6675
G1 X50.546 Y155.732 E158.85478
G1 X50.318 Y156.707 E158.9168
G1 X50.189 Y156.977 E158.93534
G1 X49.691 Y157.695 E158.98946
G1 X49.301 Y158.115 E159.02497
G1 X48.403 Y158.698 E159.09129
G1 X47.465 Y158.975 E159.15187
G1 X19.789 Y158.975 E160.86622
G1 X18.791 Y158.756 E160.92951
G1 X18.631 Y158.688 E160.94028
G1 X17.899 Y158.203 E160.99468
G1 X17.41 Y157.775 E161.03493
G1 X16.799 Y156.867 E161.10272
G1 X16.508 Y155.905 E161.16498
G1 X16.508 Y65.052 E166.79275
G1 X16.728 Y64.049 E166.85636
G1 X16.796 Y63.889 E166.86712
G1 X17.277 Y63.163 E166.92107
G1 X17.699 Y62.681 E166.96075
G1 X18.603 Y62.068 E167.02841
G1 X19.16 Y61.894 E167.06456
G0 F648 X19.557 Y61.77
G0 F6000 X19.63 Y62.25
G1 F720 X47.196 Y62.138 E168.77211
G1 X48.067 Y62.326 E168.82731
G1 X48.23 Y62.394 E168.83825
G1 X48.958 Y62.88 E168.89247
G1 X49.278 Y63.174 E168.91938
G1 X49.812 Y63.954 E168.97794
G1 X50.071 Y64.788 E169.03203
G1 X50.074 Y81.317 E170.0559
G1 X50.113 Y97.242 E171.04236
G1 X50.062 Y108.166 E171.71904
G1 X50.062 Y151.686 E174.41483
G1 X50.113 Y152.702 E174.47784
G1 X50.067 Y155.675 E174.66202
G1 X49.864 Y156.544 E174.7173
G1 X49.793 Y156.706 E174.72825
G1 X49.339 Y157.368 E174.77798
G1 X48.988 Y157.746 E174.80993
G1 X48.2 Y158.258 E174.86814
G1 X47.397 Y158.495 E174.92
G1 X19.842 Y158.495 E176.62686
G1 X18.894 Y158.287 E176.68698
G1 X18.215 Y157.842 E176.73727
G1 X17.773 Y157.455 E176.77366
G1 X17.237 Y156.658 E176.83315
G1 X16.988 Y155.835 E176.88642
G1 X16.988 Y65.105 E182.50656
G1 X17.197 Y64.152 E182.567
G1 X17.638 Y63.479 E182.61684
G1 X18.02 Y63.043 E182.65275
G1 X18.813 Y62.505 E182.71211
G1 X19.233 Y62.374 E182.73936
G0 F648 X19.63 Y62.25
G0 F6000 X19.703 Y62.73
G1 F720 X47.147 Y62.618 E184.43936
G1 X47.966 Y62.795 E184.49126
G1 X48.633 Y63.234 E184.54072
G1 X48.915 Y63.493 E184.56444
G1 X49.376 Y64.166 E184.61497
G1 X49.591 Y64.859 E184.65992
G1 X49.594 Y81.317 E185.67938
G1 X49.633 Y97.24 E186.66572
G1 X49.582 Y108.164 E187.3424
G1 X49.582 Y151.686 E190.03831
G1 X49.633 Y152.695 E190.10089
G1 X49.588 Y155.618 E190.28197
G1 X49.397 Y156.435 E190.33395
G1 X48.943 Y157.097 E190.38367
G1 X48.678 Y157.375 E190.40746
G1 X47.997 Y157.818 E190.45778
G1 X47.329 Y158.015 E190.50092
G1 X19.895 Y158.015 E192.20029
G1 X19.084 Y157.837 E192.25172
G1 X18.478 Y157.44 E192.29659
G1 X18.136 Y157.134 E192.32502
G1 X17.675 Y156.449 E192.37617
G1 X17.468 Y155.765 E192.42043
G1 X17.468 Y65.158 E198.03296
G1 X17.647 Y64.342 E198.08471
G1 X18.04 Y63.742 E198.12914
G1 X18.342 Y63.404 E198.15722
G1 X19.023 Y62.942 E198.20819
G1 X19.306 Y62.853 E198.22657
G0 F648 X19.703 Y62.73
G0 F6000 X19.776 Y63.21
G1 F720 X47.098 Y63.098 E199.91901
G1 X47.778 Y63.245 E199.9621
G1 X48.309 Y63.588 E200.00126
G1 X48.55 Y63.809 E200.02152
G1 X48.939 Y64.378 E200.06421
G1 X49.111 Y64.931 E200.10009
G1 X49.114 Y81.317 E201.11509
G1 X49.153 Y97.238 E202.1013
G1 X49.102 Y108.162 E202.77798
G1 X49.102 Y151.686 E205.47402
G1 X49.153 Y152.688 E205.53617
G1 X49.109 Y155.56 E205.71409
G1 X48.95 Y156.238 E205.75723
G1 X48.595 Y156.766 E205.79664
G1 X48.368 Y157.005 E205.81706
G1 X47.794 Y157.378 E205.85946
G1 X47.261 Y157.535 E205.89388
G1 X19.948 Y157.535 E207.58575
G1 X19.274 Y157.387 E207.62849
G1 X18.741 Y157.038 E207.66795
G1 X18.501 Y156.817 E207.68816
G1 X18.113 Y156.24 E207.73123
G1 X17.948 Y155.695 E207.76651
G1 X17.948 Y65.211 E213.37142
G1 X18.097 Y64.532 E213.41448
G1 X18.442 Y64.005 E213.4535
G1 X18.661 Y63.767 E213.47353
G1 X19.233 Y63.379 E213.51635
G1 X19.379 Y63.333 E213.52583
G0 F648 X19.776 Y63.21
G0 F6000 X19.848 Y63.69
G1 F720 X47.049 Y63.578 E215.21077
G1 X47.59 Y63.695 E215.24506
G1 X48.048 Y63.991 E215.27884
G1 X48.184 Y64.123 E215.29058
G1 X48.503 Y64.59 E215.32561
G1 X48.631 Y65.002 E215.35233
G1 X48.634 Y81.317 E216.36294
G1 X48.673 Y97.236 E217.34903
G1 X48.622 Y108.16 E218.02571
G1 X48.622 Y151.686 E220.72187
G1 X48.673 Y152.681 E220.78358
G1 X48.63 Y155.502 E220.95835
G1 X48.503 Y156.043 E220.99277
G1 X48.197 Y156.498 E221.02674
G1 X48.06 Y156.633 E221.03865
G1 X47.59 Y156.938 E221.07336
G1 X47.193 Y157.055 E221.09899
G1 X20.001 Y157.055 E222.78337
G1 X19.464 Y156.937 E222.81742
G1 X19.004 Y156.636 E222.85148
G1 X18.868 Y156.502 E222.8633
G1 X18.551 Y156.031 E222.89847
G1 X18.428 Y155.625 E222.92475
G1 X18.428 Y65.264 E228.52204
G1 X18.547 Y64.722 E228.55641
G1 X18.844 Y64.268 E228.59002
G1 X18.976 Y64.134 E228.60167
G1 X19.445 Y63.815 E228.63681
G1 X19.45 Y63.813 E228.63714
G0 F648 X19.848 Y63.69
G0 F6000 X19.923 Y64.17
G1 F720 X19.655 Y64.253 E228.65452
G1 X19.246 Y64.531 E228.68515
G1 X18.997 Y64.912 E228.71334
G1 X18.908 Y65.317 E228.73903
G1 X18.908 Y155.555 E234.3287
G1 X18.989 Y155.822 E234.34599
G1 X19.266 Y156.234 E234.37674
G1 X19.652 Y156.486 E234.40529
G1 X20.055 Y156.575 E234.43086
G1 X47.125 Y156.575 E236.10767
G1 X47.386 Y156.498 E236.12453
G1 X47.799 Y156.23 E236.15503
G1 X48.056 Y155.848 E236.18355
G1 X48.151 Y155.444 E236.20925
G1 X48.193 Y152.674 E236.38086
G1 X48.142 Y151.686 E236.44214
G1 X48.142 Y108.158 E239.13842
G1 X48.193 Y97.234 E239.8151
